COLOR/action 16/16/document-open.svg

<svg height="16" width="16" xmlns="http://www.w3.org/2000/svg"><path d="m4.001142.00024509c-.8044026 0-1.4535332.06148639-2.0171692.22848215-.5720549.16951319-1.07127355.47090289-1.40791778.91978706-.64621696.8616711-.57410238 1.8660858-.57410238 2.8511447v7.090757c0 .782798.06143343 1.417709.22846931 1.970415.16966608.561525.47083417 1.046563.91192455 1.374798.8473541.630547 1.8277804.562418 2.7670172.562418h8.1799823c.782798 0 1.417715-.0616 1.970304-.228482.561304-.169539 1.049677-.470112 1.378627-.911975.631357-.848071.5591-1.829847.55848-2.769126l.002-6.0889516c0-.7721819-.0467-1.4004054-.19332-1.9528387-.148814-.5607064-.424532-1.0619141-.859248-1.4138554-.837519-.67799297-1.855172-.6327198-2.946668-.6327197h-3.5852111l-.9997973-.99985351z" fill="#7e2c50"/><path d="m4.001142.00024509c-.8044026 0-1.4535332.06148639-2.0171692.22848215-.5720549.16951319-1.07127356.47090287-1.40791778.91978706-.58952418.7860766-.58009555 1.6908177-.57410238 2.591417.01119289-.7316593.09375765-1.4509946.57410238-2.0914902.33664422-.4488841.83586288-.75027394 1.40791778-.91978712.563636-.16699576 1.2127666-.22848214 2.0171692-.22848214h3.4133706l.9997973.99985346h3.5852111c1.091496 0 2.109149-.045274 2.946668.6327198.434716.3519413.710387.853149.859201 1.4138553.146349.5514156.193148 1.1787029.19332 1.9489331v-.4960211c0-.7721819-.0467-1.4004054-.19332-1.9528387-.148814-.5607064-.424485-1.0619141-.859201-1.4138554-.837519-.677993-1.855172-.6327198-2.946668-.6327197h-3.5852111l-.9997973-.99985351zm11.995615 11.14094491v.447201c.00005.07634-.000581.153635 0 .230434.0033-.2269.000721-.452808 0-.677635z" fill="#fff" opacity=".3"/><g enable-background="new" transform="matrix(1.5 0 0 1.5 -1083.4825145 -356.99069)"><path d="m731.15458 241.09397c0-1.00272-.11326-1.11061-1.21855-1.1057h-2.28145-2.28145c-1.10526-.005-1.21855.10298-1.21855 1.1057v2.78845c0 1.00271.11326 1.1057 1.21855 1.1057h2.28145 2.28145c1.10528 0 1.21855-.10293 1.21855-1.1057z" fill="none" opacity=".2" stroke="#000" stroke-width=".666667"/><path d="m731.15458 241.09397c0-1.00272-.11326-1.11061-1.21855-1.1057h-2.28145-2.28145c-1.10526-.005-1.21855.10298-1.21855 1.1057v2.78845c0 1.00271.11326 1.1057 1.21855 1.1057h2.28145 2.28145c1.10528 0 1.21855-.10293 1.21855-1.1057z" fill="#fff"/></g><path d="m7.7933421 5.4994392-.1464547.1464628-.8533426.8533907h-3.2923015c-1.0975819 0-1.9634992-.021984-2.63227891.5194551-.33438985.2707194-.5583968.670013-.68736067 1.1560805-.12896386.4860677-.17965108 1.0733937-.17965108 1.8239515l.00195273 1.0916362c-.00005498.06763.00195273.103982.00195273.06444v.002c.00413952.746843.06165853 1.365045.22456385 1.904018.16966608.561525.47083417 1.046563.91192455 1.374798.8473541.630547 1.8277804.562418 2.7670172.562418h8.1799823c.782798 0 1.417715-.0616 1.970304-.228482.561304-.169539 1.049677-.470112 1.378627-.911975.306202-.411324.440085-.873016.501851-1.316214l.002-.01758.002-.01953c.03315-.512881.05128-.969169.05263-1.357267v-.002-.002c-.000045-.01759.000011-.034 0-.05468v-2.2378514c-.001057-.9542854.016667-1.7914809-.515521-2.4508127s-1.467175-.9002587-2.981818-.9002587z" fill="#6c6c6c"/><path d="m7.7933421 5.4994392-.1464547.1464628-.8533426.8533907h-3.2923015c-1.0975819 0-1.9634992-.021984-2.63227891.5194551-.33438984.2707194-.5583968.670013-.68736067 1.1560805-.12896386.4860677-.17965108 1.0733937-.17965108 1.8239515v.4784452c.00106628-.7391859.05205428-1.3215547.17965108-1.8024699.12896387-.4860676.35297083-.8853611.68736067-1.1560806.66877971-.5414388 1.53469701-.5194551 2.63227891-.5194551h3.2923015l.8533426-.8533906.1464547-.1464628h4.7060769c1.514643 0 2.44963.2409268 2.981818.9002586s.514465 1.4965273.51552 2.4508128v-.4999268c-.001056-.9542854.016668-1.7914809-.51552-2.4508127s-1.467175-.9002587-2.981818-.9002587z" fill="#f2f2f2" opacity=".3"/><path d="m.00390537 10.59049v.499926c-.00005498.06763.00195273.103985.00195273.06444v.002c.00413952.746843.06165853 1.365045.22456385 1.904018.16966608.561525.47083419 1.046563.91192455 1.374798.8473541.630547 1.8277804.562418 2.7670172.562418h8.1799823c.782798 0 1.417715-.0616 1.970304-.228482.561304-.169539 1.049677-.470112 1.378627-.911975.306202-.411324.440085-.873016.501851-1.316214l.002-.01757.002-.01953c.03315-.512881.05137-.969125.05272-1.357223v-.002-.002c-.000045-.01759.000011-.034 0-.05468v-.441342c-.0013.388099-.01958.844342-.05272 1.357223l-.002.01953-.002.01757c-.06177.443197-.195649.904889-.501851 1.316213-.32895.441863-.817323.742435-1.378627.911975-.552589.166881-1.187506.228483-1.970304.228483h-8.1799823c-.9392368 0-1.9196631.06812-2.7670172-.562418-.44109036-.328183-.74225847-.81322-.91192455-1.374746-.16290532-.538972-.22042433-1.157175-.22456385-1.904018v-.002c0 .03954-.00200771.0032-.00195273-.06444z" opacity=".2"/></svg>

<?xml version="1.0" encoding="UTF-8" standalone="no"?>
<svg
   xmlns:dc="http://purl.org/dc/elements/1.1/"
   xmlns:cc="http://creativecommons.org/ns#"
   xmlns:rdf="http://www.w3.org/1999/02/22-rdf-syntax-ns#"
   xmlns:svg="http://www.w3.org/2000/svg"
   xmlns="http://www.w3.org/2000/svg"
   xmlns:xlink="http://www.w3.org/1999/xlink"
   xmlns:sodipodi="http://sodipodi.sourceforge.net/DTD/sodipodi-0.dtd"
   xmlns:inkscape="http://www.inkscape.org/namespaces/inkscape"
   height="16"
   width="16"
   version="1.1"
   id="svg44"
   sodipodi:docname="document-open.svg"
   inkscape:version="0.92.4 (5da689c313, 2019-01-14)">
  <metadata
     id="metadata50">
    <rdf:RDF>
      <cc:Work
         rdf:about="">
        <dc:format>image/svg+xml</dc:format>
        <dc:type
           rdf:resource="http://purl.org/dc/dcmitype/StillImage" />
      </cc:Work>
    </rdf:RDF>
  </metadata>
  <defs
     id="defs48">
    <linearGradient
       inkscape:collect="always"
       xlink:href="#a"
       id="linearGradient924"
       gradientUnits="userSpaceOnUse"
       x1=".0024"
       y1="5.99785"
       x2="16.0024"
       y2="14.99785" />
    <linearGradient
       y2="45.972855"
       y1="22.817245"
       xlink:href="#a-3"
       x2="34.761932"
       x1="34.918625"
       gradientUnits="userSpaceOnUse"
       id="d-0"
       gradientTransform="matrix(0.31914183,0,0,0.31914183,0.27556378,32.814522)" />
    <linearGradient
       id="linearGradient1190">
      <stop
         id="stop2-9"
         stop-color="#fff"
         offset="0" />
      <stop
         id="stop4-3"
         stop-opacity=".098039"
         stop-color="#fff"
         offset=".125" />
      <stop
         id="stop6-6"
         stop-opacity=".098039"
         stop-color="#fff"
         offset=".92500001" />
      <stop
         id="stop8-0"
         stop-opacity=".498039"
         stop-color="#fff"
         offset="1" />
    </linearGradient>
    <filter
       id="c-6"
       style="color-interpolation-filters:sRGB">
      <feBlend
         id="feBlend16-2"
         mode="multiply"
         in2="BackgroundImage" />
    </filter>
    <linearGradient
       y2="42.46537"
       y1="1.774151"
       xlink:href="#a-3"
       x2="25.074343"
       x1="24.059015"
       gradientUnits="userSpaceOnUse"
       id="f-6"
       gradientTransform="matrix(0.31914183,0,0,0.31914183,0.27556378,32.814522)" />
    <linearGradient
       y2="38.116615"
       y1="5.5256934"
       x2="25.183651"
       x1="25.065369"
       gradientUnits="userSpaceOnUse"
       id="e-1"
       gradientTransform="matrix(0.31914183,0,0,0.31914183,0.27556378,32.814522)">
      <stop
         id="stop20-8"
         stop-color="#fff"
         offset="0" />
      <stop
         id="stop22-7"
         stop-opacity=".098039"
         stop-color="#fff"
         offset=".125" />
      <stop
         id="stop24-9"
         stop-opacity=".098039"
         stop-color="#fff"
         offset=".92500001" />
      <stop
         id="stop26-2"
         stop-opacity="0"
         stop-color="#fff"
         offset="1" />
    </linearGradient>
    <linearGradient
       y2="6.9269948"
       y1="23.79875"
       x2="27.27836"
       x1="23.612318"
       gradientUnits="userSpaceOnUse"
       id="b-0"
       gradientTransform="matrix(0.34782603,0,0,0.34782603,21.54409,37.463941)">
      <stop
         id="stop11-2"
         stop-color="#f6f5f4"
         offset="0" />
      <stop
         id="stop13-3"
         stop-color="#e9e7e4"
         offset="1" />
    </linearGradient>
  </defs>
  <sodipodi:namedview
     pagecolor="#ffffff"
     bordercolor="#666666"
     borderopacity="1"
     objecttolerance="10"
     gridtolerance="10"
     guidetolerance="10"
     inkscape:pageopacity="0"
     inkscape:pageshadow="2"
     inkscape:window-width="1920"
     inkscape:window-height="1016"
     id="namedview46"
     showgrid="false"
     inkscape:zoom="56.066681"
     inkscape:cx="4.5839758"
     inkscape:cy="8.4997568"
     inkscape:window-x="0"
     inkscape:window-y="27"
     inkscape:window-maximized="1"
     inkscape:current-layer="svg44" />
  <linearGradient
     id="a"
     gradientUnits="userSpaceOnUse"
     x1=".0024"
     x2="16.0024"
     y1="5.99785"
     y2="14.99785">
    <stop
       offset="0"
       stop-color="#666"
       id="stop2" />
    <stop
       offset="1"
       stop-color="#7a7a7a"
       id="stop4" />
  </linearGradient>
  <linearGradient
     id="b"
     gradientUnits="userSpaceOnUse"
     x1=".0024"
     x2="16.0024"
     y1="15.99785"
     y2="-.00215"
     gradientTransform="matrix(0.99979734,0,0,0.99985343,-9.0855443e-8,0.00219793)">
    <stop
       offset="0"
       stop-color="#2c001e"
       id="stop7" />
    <stop
       offset=".10864977"
       stop-color="#2c001e"
       id="stop9" />
    <stop
       offset=".18689813"
       stop-color="#370626"
       id="stop11" />
    <stop
       offset=".2980746"
       stop-color="#55163b"
       id="stop13" />
    <stop
       offset=".37246177"
       stop-color="#772953"
       id="stop15" />
    <stop
       offset=".44700962"
       stop-color="#7c2b51"
       id="stop17" />
    <stop
       offset=".52428877"
       stop-color="#8b314b"
       id="stop19" />
    <stop
       offset=".59614229"
       stop-color="#8b314b"
       id="stop21" />
    <stop
       offset=".66876179"
       stop-color="#a33a41"
       id="stop23" />
    <stop
       offset=".79755175"
       stop-color="#c44732"
       id="stop25" />
    <stop
       offset=".91251218"
       stop-color="#e65524"
       id="stop27" />
    <stop
       offset="1"
       stop-color="#e65524"
       id="stop29" />
  </linearGradient>
  <path
     style="color:#000000;font-style:normal;font-variant:normal;font-weight:normal;font-stretch:normal;font-size:medium;line-height:normal;font-family:sans-serif;font-variant-ligatures:normal;font-variant-position:normal;font-variant-caps:normal;font-variant-numeric:normal;font-variant-alternates:normal;font-feature-settings:normal;text-indent:0;text-align:start;text-decoration:none;text-decoration-line:none;text-decoration-style:solid;text-decoration-color:#000000;letter-spacing:normal;word-spacing:normal;text-transform:none;writing-mode:lr-tb;direction:ltr;text-orientation:mixed;dominant-baseline:auto;baseline-shift:baseline;text-anchor:start;white-space:normal;shape-padding:0;clip-rule:nonzero;display:inline;overflow:visible;visibility:visible;opacity:1;isolation:auto;mix-blend-mode:normal;color-interpolation:sRGB;color-interpolation-filters:linearRGB;solid-color:#000000;solid-opacity:1;vector-effect:none;fill:#7e2c50;fill-opacity:1;fill-rule:nonzero;stroke:none;stroke-width:0.99982542;stroke-linecap:butt;stroke-linejoin:miter;stroke-miterlimit:4;stroke-dasharray:none;stroke-dashoffset:0;stroke-opacity:1;color-rendering:auto;image-rendering:auto;shape-rendering:auto;text-rendering:auto;enable-background:accumulate"
     d="m 4.001142,2.4509458e-4 c -0.8044026,0 -1.4535332,0.0614863854 -2.0171692,0.22848214542 C 1.4119179,0.39824043 0.91269925,0.69963013 0.57605502,1.1485143 -0.07016194,2.0101854 0.00195264,3.0146001 0.00195264,3.999659 v 7.090757 c 0,0.782798 0.06143343,1.417709 0.22846931,1.970415 0.16966608,0.561525 0.47083417,1.046563 0.91192455,1.374798 0.8473541,0.630547 1.8277804,0.562418 2.7670172,0.562418 h 8.1799823 c 0.782798,0 1.417715,-0.0616 1.970304,-0.228482 0.561304,-0.169539 1.049677,-0.470112 1.378627,-0.911975 0.631357,-0.848071 0.5591,-1.829847 0.55848,-2.769126 l 0.002,-6.0889516 c 0,-0.7721819 -0.0467,-1.4004054 -0.19332,-1.9528387 C 15.656623,2.4859673 15.380905,1.9847596 14.946189,1.6328183 14.10867,0.95482533 13.091017,1.0000985 11.999521,1.0000986 H 8.4143099 L 7.4145126,2.4509458e-4 Z"
     id="path38"
     inkscape:connector-curvature="0"
     sodipodi:nodetypes="scsssccssccccccsccs" />
  <path
     style="color:#000000;font-style:normal;font-variant:normal;font-weight:normal;font-stretch:normal;font-size:medium;line-height:normal;font-family:sans-serif;font-variant-ligatures:normal;font-variant-position:normal;font-variant-caps:normal;font-variant-numeric:normal;font-variant-alternates:normal;font-feature-settings:normal;text-indent:0;text-align:start;text-decoration:none;text-decoration-line:none;text-decoration-style:solid;text-decoration-color:#000000;letter-spacing:normal;word-spacing:normal;text-transform:none;writing-mode:lr-tb;direction:ltr;text-orientation:mixed;dominant-baseline:auto;baseline-shift:baseline;text-anchor:start;white-space:normal;shape-padding:0;clip-rule:nonzero;display:inline;overflow:visible;visibility:visible;opacity:0.3;isolation:auto;mix-blend-mode:normal;color-interpolation:sRGB;color-interpolation-filters:linearRGB;solid-color:#000000;solid-opacity:1;vector-effect:none;fill:#ffffff;fill-opacity:1;fill-rule:nonzero;stroke:none;stroke-width:0.99982542;stroke-linecap:butt;stroke-linejoin:miter;stroke-miterlimit:4;stroke-dasharray:none;stroke-dashoffset:0;stroke-opacity:1;color-rendering:auto;image-rendering:auto;shape-rendering:auto;text-rendering:auto;enable-background:accumulate"
     d="m 4.001142,2.4509458e-4 c -0.8044026,0 -1.4535332,0.0614863854 -2.0171692,0.22848214542 C 1.4119179,0.39824043 0.91269924,0.69963011 0.57605502,1.1485143 -0.01346916,1.9345909 -0.00404053,2.839332 0.00195264,3.7399313 0.01314553,3.008272 0.09571029,2.2889367 0.57605502,1.6484411 0.91269924,1.199557 1.4119179,0.89816716 1.9839728,0.72865398 2.5476088,0.56165822 3.1967394,0.50017184 4.001142,0.50017184 H 7.4145126 L 8.4143099,1.5000253 h 3.5852111 c 1.091496,0 2.109149,-0.045274 2.946668,0.6327198 0.434716,0.3519413 0.710387,0.853149 0.859201,1.4138553 0.146349,0.5514156 0.193148,1.1787029 0.19332,1.9489331 V 4.9995124 c 0,-0.7721819 -0.0467,-1.4004054 -0.19332,-1.9528387 C 15.656576,2.4859673 15.380905,1.9847596 14.946189,1.6328183 14.10867,0.9548253 13.091017,1.0000985 11.999521,1.0000986 H 8.4143099 L 7.4145126,2.4509458e-4 Z M 15.996757,11.14119 v 0.447201 c 5e-5,0.07634 -5.81e-4,0.153635 0,0.230434 0.0033,-0.2269 7.21e-4,-0.452808 0,-0.677635 z"
     id="path926"
     inkscape:connector-curvature="0" />
  <g
     style="enable-background:new"
     id="g4653"
     transform="translate(-21.877383,-4.531885)">
    <g
       transform="translate(0,-32)"
       style="fill:none"
       id="g4651">
      <g
         id="g4649" />
    </g>
  </g>
  <g
     style="display:inline;enable-background:new"
     transform="matrix(1.5,0,0,1.5,-1083.4355,-356.99069)"
     id="g5277">
    <g
       id="g876"
       transform="translate(-0.03134263)">
      <path
         sodipodi:nodetypes="scccssscsss"
         inkscape:connector-curvature="0"
         id="path5273"
         d="m 731.15458,241.09397 c 0,-1.00272 -0.11326,-1.11061 -1.21855,-1.1057 h -2.28145 -2.28145 c -1.10526,-0.005 -1.21855,0.10298 -1.21855,1.1057 v 2.78845 c 0,1.00271 0.11326,1.1057 1.21855,1.1057 h 2.28145 2.28145 c 1.10528,0 1.21855,-0.10293 1.21855,-1.1057 z"
         style="color:#000000;display:inline;overflow:visible;visibility:visible;opacity:0.2;fill:none;fill-opacity:1;fill-rule:nonzero;stroke:#000000;stroke-width:0.66666669;stroke-miterlimit:4;stroke-dasharray:none;stroke-opacity:1;marker:none;enable-background:accumulate" />
      <path
         style="color:#000000;display:inline;overflow:visible;visibility:visible;fill:#ffffff;fill-opacity:1;fill-rule:nonzero;stroke:none;stroke-width:0.99999988;marker:none;enable-background:accumulate"
         d="m 731.15458,241.09397 c 0,-1.00272 -0.11326,-1.11061 -1.21855,-1.1057 h -2.28145 -2.28145 c -1.10526,-0.005 -1.21855,0.10298 -1.21855,1.1057 v 2.78845 c 0,1.00271 0.11326,1.1057 1.21855,1.1057 h 2.28145 2.28145 c 1.10528,0 1.21855,-0.10293 1.21855,-1.1057 z"
         id="path5275"
         inkscape:connector-curvature="0"
         sodipodi:nodetypes="scccssscsss" />
    </g>
  </g>
  <path
     style="color:#000000;font-style:normal;font-variant:normal;font-weight:normal;font-stretch:normal;font-size:medium;line-height:normal;font-family:sans-serif;font-variant-ligatures:normal;font-variant-position:normal;font-variant-caps:normal;font-variant-numeric:normal;font-variant-alternates:normal;font-feature-settings:normal;text-indent:0;text-align:start;text-decoration:none;text-decoration-line:none;text-decoration-style:solid;text-decoration-color:#000000;letter-spacing:normal;word-spacing:normal;text-transform:none;writing-mode:lr-tb;direction:ltr;text-orientation:mixed;dominant-baseline:auto;baseline-shift:baseline;text-anchor:start;white-space:normal;shape-padding:0;clip-rule:nonzero;display:inline;overflow:visible;visibility:visible;opacity:1;isolation:auto;mix-blend-mode:normal;color-interpolation:sRGB;color-interpolation-filters:linearRGB;solid-color:#000000;solid-opacity:1;vector-effect:none;fill:#6c6c6c;fill-opacity:1;fill-rule:nonzero;stroke:none;stroke-width:0.99982542;stroke-linecap:butt;stroke-linejoin:miter;stroke-miterlimit:4;stroke-dasharray:none;stroke-dashoffset:0;stroke-opacity:1;color-rendering:auto;image-rendering:auto;shape-rendering:auto;text-rendering:auto;enable-background:accumulate"
     d="M 7.7933421,5.4994392 7.6468874,5.645902 6.7935448,6.4992927 H 3.5012433 c -1.0975819,0 -1.9634992,-0.021984 -2.63227891,0.5194551 C 0.53457454,7.2894672 0.31056759,7.6887608 0.18160372,8.1748283 0.05263986,8.660896 0.00195264,9.248222 0.00195264,9.9987798 l 0.00195273,1.0916362 c -5.498e-5,0.06763 0.00195273,0.103982 0.00195273,0.06444 v 0.002 c 0.00413952,0.746843 0.06165853,1.365045 0.22456385,1.904018 0.16966608,0.561525 0.47083417,1.046563 0.91192455,1.374798 0.8473541,0.630547 1.8277804,0.562418 2.7670172,0.562418 h 8.1799823 c 0.782798,0 1.417715,-0.0616 1.970304,-0.228482 0.561304,-0.169539 1.049677,-0.470112 1.378627,-0.911975 0.306202,-0.411324 0.440085,-0.873016 0.501851,-1.316214 l 0.002,-0.01758 0.002,-0.01953 c 0.03315,-0.512881 0.05128,-0.969169 0.05263,-1.357267 v -0.002 -0.002 c -4.5e-5,-0.01759 1.1e-5,-0.034 0,-0.05468 V 8.8505106 C 15.995701,7.8962252 16.013425,7.0590297 15.481237,6.3996979 14.949049,5.7403661 14.014062,5.4994392 12.499419,5.4994392 Z"
     id="path40"
     inkscape:connector-curvature="0"
     sodipodi:nodetypes="cccsssccccccssccccccccccssc" />
  <path
     style="color:#000000;font-style:normal;font-variant:normal;font-weight:normal;font-stretch:normal;font-size:medium;line-height:normal;font-family:sans-serif;font-variant-ligatures:normal;font-variant-position:normal;font-variant-caps:normal;font-variant-numeric:normal;font-variant-alternates:normal;font-feature-settings:normal;text-indent:0;text-align:start;text-decoration:none;text-decoration-line:none;text-decoration-style:solid;text-decoration-color:#000000;letter-spacing:normal;word-spacing:normal;text-transform:none;writing-mode:lr-tb;direction:ltr;text-orientation:mixed;dominant-baseline:auto;baseline-shift:baseline;text-anchor:start;white-space:normal;shape-padding:0;clip-rule:nonzero;display:inline;overflow:visible;visibility:visible;opacity:0.3;isolation:auto;mix-blend-mode:normal;color-interpolation:sRGB;color-interpolation-filters:linearRGB;solid-color:#000000;solid-opacity:1;vector-effect:none;fill:#f2f2f2;fill-opacity:1;fill-rule:nonzero;stroke:none;stroke-width:0.99982542;stroke-linecap:butt;stroke-linejoin:miter;stroke-miterlimit:4;stroke-dasharray:none;stroke-dashoffset:0;stroke-opacity:1;color-rendering:auto;image-rendering:auto;shape-rendering:auto;text-rendering:auto;enable-background:accumulate"
     d="M 7.7933421,5.4994392 7.6468874,5.645902 6.7935448,6.4992927 H 3.5012433 c -1.0975819,0 -1.9634992,-0.021984 -2.63227891,0.5194551 C 0.53457455,7.2894672 0.31056759,7.6887608 0.18160372,8.1748283 0.05263986,8.660896 0.00195264,9.248222 0.00195264,9.9987798 V 10.477225 C 0.00301892,9.7380391 0.05400692,9.1556703 0.18160372,8.6747551 0.31056759,8.1886875 0.53457455,7.789394 0.86896439,7.5186745 1.5377441,6.9772357 2.4036614,6.9992194 3.5012433,6.9992194 H 6.7935448 L 7.6468874,6.1458288 7.7933421,5.999366 h 4.7060769 c 1.514643,0 2.44963,0.2409268 2.981818,0.9002586 0.532188,0.6593318 0.514465,1.4965273 0.51552,2.4508128 V 8.8505106 C 15.995701,7.8962252 16.013425,7.0590297 15.481237,6.3996979 14.949049,5.7403661 14.014062,5.4994392 12.499419,5.4994392 Z"
     id="path931"
     inkscape:connector-curvature="0" />
  <path
     style="color:#000000;font-style:normal;font-variant:normal;font-weight:normal;font-stretch:normal;font-size:medium;line-height:normal;font-family:sans-serif;font-variant-ligatures:normal;font-variant-position:normal;font-variant-caps:normal;font-variant-numeric:normal;font-variant-alternates:normal;font-feature-settings:normal;text-indent:0;text-align:start;text-decoration:none;text-decoration-line:none;text-decoration-style:solid;text-decoration-color:#000000;letter-spacing:normal;word-spacing:normal;text-transform:none;writing-mode:lr-tb;direction:ltr;text-orientation:mixed;dominant-baseline:auto;baseline-shift:baseline;text-anchor:start;white-space:normal;shape-padding:0;clip-rule:nonzero;display:inline;overflow:visible;visibility:visible;opacity:0.2;isolation:auto;mix-blend-mode:normal;color-interpolation:sRGB;color-interpolation-filters:linearRGB;solid-color:#000000;solid-opacity:1;vector-effect:none;fill:#000000;fill-opacity:1;fill-rule:nonzero;stroke:none;stroke-width:0.99982542;stroke-linecap:butt;stroke-linejoin:miter;stroke-miterlimit:4;stroke-dasharray:none;stroke-dashoffset:0;stroke-opacity:1;color-rendering:auto;image-rendering:auto;shape-rendering:auto;text-rendering:auto;enable-background:accumulate"
     d="m 0.00390537,10.59049 v 0.499926 c -5.498e-5,0.06763 0.00195273,0.103985 0.00195273,0.06444 v 0.002 c 0.00413952,0.746843 0.06165853,1.365045 0.22456385,1.904018 0.16966608,0.561525 0.47083419,1.046563 0.91192455,1.374798 0.8473541,0.630547 1.8277804,0.562418 2.7670172,0.562418 h 8.1799823 c 0.782798,0 1.417715,-0.0616 1.970304,-0.228482 0.561304,-0.169539 1.049677,-0.470112 1.378627,-0.911975 0.306202,-0.411324 0.440085,-0.873016 0.501851,-1.316214 l 0.002,-0.01757 0.002,-0.01953 c 0.03315,-0.512881 0.05137,-0.969125 0.05272,-1.357223 v -0.002 -0.002 c -4.5e-5,-0.01759 1.1e-5,-0.034 0,-0.05468 v -0.441342 c -0.0013,0.388099 -0.01958,0.844342 -0.05272,1.357223 l -0.002,0.01953 -0.002,0.01757 c -0.06177,0.443197 -0.195649,0.904889 -0.501851,1.316213 -0.32895,0.441863 -0.817323,0.742435 -1.378627,0.911975 -0.552589,0.166881 -1.187506,0.228483 -1.970304,0.228483 H 3.9093637 c -0.9392368,0 -1.9196631,0.06812 -2.7670172,-0.562418 C 0.70125614,13.607467 0.40008803,13.12243 0.23042195,12.560904 0.06751663,12.021932 0.00999762,11.403729 0.0058581,10.656886 v -0.002 c 0,0.03954 -0.00200771,0.0032 -0.00195273,-0.06444 z"
     id="path936"
     inkscape:connector-curvature="0" />
</svg>
